epam-assets/icon-sources/18/action-history.svg

<svg width="18" height="18" viewBox="0 0 18 18" fill="none" xmlns="http://www.w3.org/2000/svg">
<g id="18/action-history">
<path id="icon" d="M9 15.75C7.275 15.75 5.772 15.178 4.491 14.034C3.2095 12.8905 2.475 11.4625 2.2875 9.75H3.825C4 11.05 4.578 12.125 5.559 12.975C6.5405 13.825 7.6875 14.25 9 14.25C10.4625 14.25 11.703 13.7405 12.7215 12.7215C13.7405 11.703 14.25 10.4625 14.25 9C14.25 7.5375 13.7405 6.29675 12.7215 5.27775C11.703 4.25925 10.4625 3.75 9 3.75C8.1375 3.75 7.33125 3.95 6.58125 4.35C5.83125 4.75 5.2 5.3 4.6875 6H6.75V7.5H2.25V3H3.75V4.7625C4.3875 3.9625 5.16575 3.34375 6.08475 2.90625C7.00325 2.46875 7.975 2.25 9 2.25C9.9375 2.25 10.8158 2.428 11.6347 2.784C12.4532 3.1405 13.1658 3.62175 13.7723 4.22775C14.3783 4.83425 14.8595 5.54675 15.216 6.36525C15.572 7.18425 15.75 8.0625 15.75 9C15.75 9.9375 15.572 10.8155 15.216 11.634C14.8595 12.453 14.3783 13.1655 13.7723 13.7715C13.1658 14.378 12.4532 14.8595 11.6347 15.216C10.8158 15.572 9.9375 15.75 9 15.75ZM11.1 12.15L8.25 9.3V5.25H9.75V8.7L12.15 11.1L11.1 12.15Z" fill="#6C6F80"/>
</g>
</svg>

<svg xmlns="http://www.w3.org/2000/svg" width="18" height="18" fill="none" viewBox="0 0 18 18">
  <path fill="#6C6F80" d="M9 15.75c-1.725 0-3.228-.572-4.509-1.716C3.21 12.89 2.475 11.462 2.288 9.75h1.537c.175 1.3.753 2.375 1.734 3.225.981.85 2.128 1.275 3.441 1.275 1.463 0 2.703-.51 3.722-1.528C13.74 11.703 14.25 10.462 14.25 9c0-1.463-.51-2.703-1.528-3.722C11.703 4.259 10.462 3.75 9 3.75c-.863 0-1.669.2-2.419.6-.75.4-1.381.95-1.894 1.65H6.75v1.5h-4.5V3h1.5v1.763a6.548 6.548 0 0 1 2.335-1.857A6.696 6.696 0 0 1 9 2.25c.938 0 1.816.178 2.635.534a6.876 6.876 0 0 1 2.137 1.444 6.875 6.875 0 0 1 1.444 2.137A6.54 6.54 0 0 1 15.75 9c0 .938-.178 1.816-.534 2.634a6.864 6.864 0 0 1-1.444 2.137 6.87 6.87 0 0 1-2.137 1.445A6.536 6.536 0 0 1 9 15.75Zm2.1-3.6L8.25 9.3V5.25h1.5V8.7l2.4 2.4-1.05 1.05Z"/>
</svg>
